packages/calcite-ui-icons/icons/autocomplete-polygon-16.svg

<?xml version="1.0" encoding="UTF-8"?><svg id="icons" xmlns="http://www.w3.org/2000/svg" viewBox="0 0 16 16"><defs><style>.cls-1{fill:none;}</style></defs><rect class="cls-1" width="16" height="16"/><path d="M13,5v-3h-3v1H3v-1H0v3h1v6H0v3h3v-1h7v1h3v-3h-3v1H3v-1h-1v-6h1v-1h7v1h3ZM11,3h1v1h-1v-1ZM11,12h1v1h-1v-1ZM2,13h-1v-1h1v1ZM2,4h-1v-1h1v1ZM7,5h1v6h-1v-6ZM16,0v16H7v-2h1v1h7V1h-7v1h-1V0h9Z"/></svg>

<svg xmlns="http://www.w3.org/2000/svg" viewBox="0 0 16 16"><path d="M0 0h16v16H0z" style="fill:none"/><path d="M13 5V2h-3v1H3V2H0v3h1v6H0v3h3v-1h7v1h3v-3h-3v1H3v-1H2V5h1V4h7v1zm-2-2h1v1h-1zm0 9h1v1h-1zm-9 1H1v-1h1zm0-9H1V3h1zm5 1h1v6H7zm9-5v16H7v-2h1v1h7V1H8v1H7V0z"/></svg>
